X: 18096
T: Humours Of Ballyloughlin, The
R: jig
M: 6/8
K: Dmixolydian
|:Ac/A/A AGE|GED D3|c2A dfd|cAG {FG}FED|
Ac/A/A AGE|FGG cGE|D3 DFA|D3 D3:|
|:B|c3 c2B|cAG ABc|df/e/d ded|dcA DF/G/A|
cBc dcB|cAG FGE|D3 DFA|D3 D3:|
|:fdd ged|fdd ged|c2e ged|c/d/ef ged|
fdd ged|f2a ged|c/d/ef gag|ed^c d3:|
|:B|A2D A2G|EFF GED|E3 EFD|E3 EFG|
A3 dAG|F3 GEA|D3 DFA|D3 D2:|

